X:1
T:Tarantella part 3
T:Tarantella part 3
T:Nigganuts
Z:Nigganuts
L:1/8
M:6/8
K:Eb
V:1 treble transpose=-14 nm="Tenor Saxophone" snm="T. Sax."
V:1
[K:F] F z z F z z | F z z F z z | A z z A z z | A3- A z2 | F z z F z z | F z z F z z | %6
 _A z z A z z | _A3- A z z | _A z z A z z | _A z z _E z z | _E z z E z z | _A z z G z z | %12
 _E z z E z z | _A z z G z z | G z z B,3 | _E3 z2 z | _E z z E z z | _E z z E z z | G z z G z z | %19
 G3- G z z | _E z z E z z | _E z z E z z | B z z B z z | B3- B z z | E z z ^C z z | ^C z z D z z | %26
 B, z z E z z | D z z z2 z | z2 z ^C z z | D z z F2 G | A z A AB^c | d3 z2 z | z6 | z6 | z6 | z6 | %36
 z6 | z6 | z6 | z6 | z6 | z6 | z6 |] %43

